/* XPM */
static char * stick_toggled_prelight_xpm[] = {
"14 15 11 1",
" 	c None",
".	c #0063B1",
"+	c #06355B",
"@	c #6D8FB3",
"#	c #5582B0",
"$	c #5581AF",
"%	c #5581B0",
"&	c #5580AF",
"*	c #5481AE",
"=	c #5480AF",
"-	c #5581AE",
"..............",
"..............",
"..............",
".........+....",
".....++..++...",
"....+++.++++..",
"...++@@.++@@..",
"...++##+@@....",
"...++$$@%++...",
"...++&*=-++...",
"...@++++++@...",
"....@++++@....",
".....@@@@.....",
"..............",
".............."};
